X:995
T: McGuckian's
C: R\'il Mhig Eochain
S: B.Breathnach:"Ceol Rince na hEireann" IV/194
Z: B.Black
L: 1/8
M: 4/4
R: reel
K: Edor
BE E2 BEdE|BE (3FED AGFA|BE E2 BEdE|Dgfg edcA :|
Adfd adfd|Adfd edcA|Adfd adfd|dgfg edcA|
Adfd adfd|Adfd edce|afge fdec|Agfg edcA ||
